!!!OTL: Der Vorwirt Es wollt' ein Herr ausreiten,
!!!ARE: Europa, Mitteleuropa, Deutschland / France, Lothringen
!!!YOR: 5, S. 16
!!    1926 gedruckt in Heidelberg
!!!SCT: Q0089H
!!!YEM: Copyright 1995, estate of Helmut Schaffrath.
**kern
*ICvox
*Ivox
!! Irregular meter.
*MX
*k[f#]
*G:
{4d
2g
4g
=1
4g
4a
4b
2b
8a
8b
=2
2.g}
=3
{4g
4f#
4e
=4
2d
4d
4g
4f#
4g
=5
2a
4b
2.g}
{4g
4g
4f#
4e
=6
4d
4d
4g
4cc
4b
4a
2b}
{4a
=7
4g
4f#
4e
2d
4g
2b
4a
=8
2g}
==
!!!AGN: Ballade, Mord, Grab, Auferstehen, Geist
!!!ONB: ESAC (Essen Associative Code) Database: BALLADE
!!!AMT: irregular
!!!AIN: vox
!!!EED: Helmut Schaffrath
!!!EEV: 1.0
*-
